assets/sonr-icons/archive.svg

<svg xmlns="http://www.w3.org/2000/svg" width="24" height="24" fill="none" viewBox="0 0 24 24"><path fill="#000" d="M4 8H20V17C20 19.209 18.209 21 16 21H8C5.79 21 4 19.209 4 17V8ZM6 10V17C6 18.105 6.895 19 8 19H16C17.105 19 18 18.105 18 17V10H6Z"/><path fill="#000" d="M9 13C9 12.448 9.448 12 10 12H14C14.552 12 15 12.448 15 13C15 13.552 14.552 14 14 14H10C9.448 14 9 13.552 9 13ZM3 5.5C3 4.119 4.119 3 5.5 3H18.5C19.881 3 21 4.119 21 5.5V7.5C21 8.881 19.881 10 18.5 10H5.5C4.119 10 3 8.881 3 7.5V5.5ZM5.5 5C5.224 5 5 5.224 5 5.5V7.5C5 7.776 5.224 8 5.5 8H18.5C18.776 8 19 7.777 19 7.5V5.5C19 5.224 18.776 5 18.5 5H5.5Z"/></svg>

<svg xmlns="http://www.w3.org/2000/svg" width="24" height="24" fill="none"><path fill="currentColor" d="M4 8h16v9a4 4 0 0 1-4 4H8a4 4 0 0 1-4-4zm2 2v7a2 2 0 0 0 2 2h8a2 2 0 0 0 2-2v-7z"/><path fill="currentColor" d="M9 13a1 1 0 0 1 1-1h4a1 1 0 0 1 0 2h-4a1 1 0 0 1-1-1M3 5.5A2.5 2.5 0 0 1 5.5 3h13A2.5 2.5 0 0 1 21 5.5v2a2.5 2.5 0 0 1-2.5 2.5h-13A2.5 2.5 0 0 1 3 7.5zM5.5 5a.5.5 0 0 0-.5.5v2a.5.5 0 0 0 .5.5h13a.5.5 0 0 0 .5-.5v-2a.5.5 0 0 0-.5-.5z"/></svg>
